!!!COM: Palestrina, Giovanni Perluigi da
!!!OPR: Missa De Beata Marie Virginis (II)
!!!OMD: Credo
!!!OTL: Qui cum Patre
**kern	**kern	**kern	**kern	**kern
*Ibass	*Itenor	*Itenor	*Icalto	*Icant
!Bassus	!Tenor 2	!Tenor 1	!Altus	!Cantus
*clefF4	*clefGv2	*clefGv2	*clefG2	*clefG2
*k[]	*k[]	*k[]	*k[]	*k[]
*G:mix	*G:mix	*G:mix	*G:mix	*G:mix
*M4/2	*M4/2	*M4/2	*M4/2	*M4/2
=99	=99	=99	=99	=99
0r	1G	0r	1r	0r
.	1B	.	1g	.
=100	=100	=100	=100	=100
0r	1c	0r	1e	1g
.	2G	.	1d	1b
.	2G	.	.	.
=101	=101	=101	=101	=101
0r	4A	1r	4c	1cc
.	4B	.	4d	.
.	4c	.	4e	.
.	4A	.	4c	.
.	4B	1G	[1g	[1dd
.	4A	.	.	.
.	4B	.	.	.
.	4c	.	.	.
=102	=102	=102	=102	=102
1G	1d	1B	0g]	2dd]
.	.	.	.	2dd
1E	1G	1c	.	4ee
.	.	.	.	4ff
.	.	.	.	[2gg
=103	=103	=103	=103	=103
1D	2A	2d	2r	4gg]
.	.	.	.	4ff
.	2B	2d	2d	1ff
4C	1c	4e	2.g	.
4D	.	4f	.	.
4E	.	[2g	.	[2ee
4F	.	.	4a	.
=104	=104	=104	=104	=104
2G	1r	2g]	2b-	4ee]
.	.	.	.	4dd
2D	.	2f	2a	1dd
1A	2r	1e	1a	.
.	[2a	.	.	2cc#
=105	=105	=105	=105	=105
2.B-	2a]	1d	2r	1dd
.	2g	.	1d	.
4B-	.	.	.	.
1A	2f	1r	.	2r
.	2e	.	2c	[2a
=106	=106	=106	=106	=106
0r	2f	0r	2d	2a]
.	2e	.	2e	2g
.	1d	.	1f	2a
.	.	.	.	2b
=107	=107	=107	=107	=107
2r	1c	1r	2e	1.cc
2A	.	.	2e	.
2A	1r	2r	2f	.
2G	.	2d	2g	2b
=108	=108	=108	=108	=108
1.F	2r	2d	2a	1a
.	2A	2c	2.f	.
.	2A	2d	.	1r
.	.	.	8e	.
.	.	.	8d	.
2E	2G	2e	2c	.
=109	=109	=109	=109	=109
1D	2A	1f	1d	2r
.	2B	.	.	2dd
1C	2.c	1e	2G	1ee
.	.	.	[2g	.
.	8B	.	.	.
.	8A	.	.	.
=110	=110	=110	=110	=110
0r	2B	0r	2g]	2dd
.	2A	.	2a	2cc
.	1r	.	2g	2b
.	.	.	2f	[2cc
=111	=111	=111	=111	=111
0r	0r	1r	2e	2cc]
.	.	.	1g	2b
.	.	2r	.	1a
.	.	[2d	2f#	.
=112	=112	=112	=112	=112
1.G	0r	2d]	1.g	2b
.	.	2e	.	1b
.	.	2d	.	.
2A	.	2c	2e	2cc
=113	=113	=113	=113	=113
2G	1d	2B	2g	2dd
2F	.	4A	2a	2dd
.	.	4B	.	.
1E	1e	2c	2g	1gg
.	.	2B	2e	.
=114	=114	=114	=114	=114
2.F	2d	1A	2a	1.ff
.	2c	.	2.f	.
4E	.	.	.	.
2D	2B	2d	.	.
.	.	.	4g	.
2C	[2c	2e	[2a	2ee
=115	=115	=115	=115	=115
0D	2c]	2f#	2a]	0dd
.	2B	1g	2g	.
.	1A	.	1a	.
.	.	2f#	.	.
=116	=116	=116	=116	=116
[0G	[0G	[0g	[0b	[0dd
=117	=117	=117	=117	=117
0G]	0G]	0g]	0b]	0dd]
*-	*-	*-	*-	*-
!!!CDT: 1525/^1526/-1594/2/2
!!!OCY: Italia
!!!AGN: Mass (Paraphrase)
!!!AST: renaissance, vocal
!!!ASW: Gregorian Mass
!!!PWK: Masses, Book Mantuan I
!!!RNB: Cadence finals: D
!!!YOR: Le Opere Complete, v. 18, p. 126
!!!YOO: Rome, Italy: Fratelli Scalera
!!!END: 1992//
!!!EED: John Miller
!!!YEC: Copyright 2000, John Miller
!!!YEN: United States of America
!!!YEM: Rights to all derivative electronic formats reserved.
!!!YEM: Refer to licensing agreement for further details.
!!!YEM: This file must be accompanied by the licensing agreement.
!!!YEM: A copy of the licensing agreement may be found at http://www.music-cog.ohio-state.edu/HumdrumDatabases/Palestrina/license.txt
!!!EMD: converted to Humdrum by Bret Aarden
